src/img/icone/symbol-defs.svg

<svg xmlns="http://www.w3.org/2000/svg" aria-hidden="true" style="position:absolute;width:0;height:0;overflow:hidden"><defs>

<symbol id="icon-chevron-down" viewBox="0 0 32 32"><path stroke-linecap="round" stroke-linejoin="round" stroke-width="3.2" d="m8 12 8 8 8-8"/></symbol>

<symbol id="icon-fb" viewBox="0 0 32 32"><path fill="#e8e8e2" d="M19.519 4.64h.96v3.6h-1.2c-.48 0-.96 0-1.2.24s-.24.48-.24 1.04v1.28h2.64v3.04h-2.64v13.2h-4.08V13.76h-2.16v-3.04h2.16V9.68c0-1.76.24-3.04.72-3.6.72-1.04 2.16-1.52 4.32-1.52.24.08.48.08.72.08z" style="fill:var(--color1, #e8e8e2)"/></symbol>

<symbol id="icon-heroicons-solid_shopping-cart-12x12" viewBox="0 0 32 32"><path fill="#6d8434" d="M4.798 1.6a1.6 1.6 0 0 0 0 3.2H6.75l.488 1.955.016.067 2.173 8.688-1.429 1.427c-2.016 2.016-.589 5.462 2.262 5.462h13.738a1.6 1.6 0 0 0 0-3.2H10.26l1.6-1.6h10.538a1.602 1.602 0 0 0 1.431-.885l4.8-9.6a1.602 1.602 0 0 0-1.43-2.315H10.047L9.551 2.81a1.601 1.601 0 0 0-1.552-1.212h-3.2zm20.8 24.8a2.4 2.4 0 1 1-4.799 0 2.4 2.4 0 0 1 4.799 0zm-15.2 2.4a2.401 2.401 0 1 0-.001-4.802 2.401 2.401 0 0 0 .001 4.802z" style="fill:var(--color2, #6d8434)"/></symbol>

<symbol id="icon-heroicons-solid_shopping-cart-18x18" viewBox="0 0 32 32"><path fill="#e8e8e2" d="M4.801 1.6a1.6 1.6 0 0 0 0 3.2h1.952l.488 1.955.016.067L9.43 15.51l-1.429 1.427c-2.016 2.016-.589 5.462 2.262 5.462h13.738a1.6 1.6 0 0 0 0-3.2H10.263l1.6-1.6h10.538a1.602 1.602 0 0 0 1.431-.885l4.8-9.6a1.602 1.602 0 0 0-1.431-2.315H10.049L9.553 2.81a1.601 1.601 0 0 0-1.552-1.212h-3.2zm20.8 24.8a2.4 2.4 0 1 1-4.799 0 2.4 2.4 0 0 1 4.799 0zm-15.2 2.4a2.401 2.401 0 1 0-.001-4.802A2.401 2.401 0 0 0 10.4 28.8z" style="fill:var(--color1, #e8e8e2)"/></symbol>

<symbol id="icon-ic_baseline-search-20x20" viewBox="0 0 32 32"><path d="M20.667 18.667h-1.053l-.373-.36a8.625 8.625 0 0 0 2.093-5.64 8.668 8.668 0 0 0-5.35-8.007A8.66 8.66 0 0 0 6.54 6.539a8.67 8.67 0 0 0-1.879 9.444 8.671 8.671 0 0 0 8.007 5.35 8.63 8.63 0 0 0 5.64-2.093l.36.373v1.053l6.667 6.653 1.987-1.987-6.653-6.667zm-8 0c-3.32 0-6-2.68-6-6s2.68-6 6-6 6 2.68 6 6-2.68 6-6 6z"/></symbol>

<symbol id="icon-instagram" viewBox="0 0 32 32"><path fill="#e8e8e2" d="M28.718 10.756a9.264 9.264 0 0 0-.596-3.145 6.547 6.547 0 0 0-3.743-3.737 9.42 9.42 0 0 0-3.108-.596c-1.367-.061-1.801-.078-5.273-.078s-3.916 0-5.274.078a9.418 9.418 0 0 0-3.106.596 6.541 6.541 0 0 0-3.743 3.737 9.288 9.288 0 0 0-.596 3.101c-.061 1.367-.08 1.8-.08 5.265s0 3.909.08 5.265a9.335 9.335 0 0 0 .596 3.104 6.548 6.548 0 0 0 3.744 3.735 9.37 9.37 0 0 0 3.106.639c1.369.061 1.803.079 5.274.079s3.917 0 5.274-.079a9.362 9.362 0 0 0 3.108-.595 6.555 6.555 0 0 0 3.743-3.737 9.346 9.346 0 0 0 .596-3.104c.061-1.365.08-1.798.08-5.265-.003-3.466-.003-3.906-.082-5.264zM15.991 22.531c-3.631 0-6.572-2.936-6.572-6.561s2.941-6.561 6.572-6.561c3.628 0 6.572 2.936 6.572 6.561s-2.944 6.561-6.572 6.561zm6.833-11.835a1.53 1.53 0 1 1 0-3.06 1.53 1.53 0 1 1 0 3.06z" opacity=".8" style="fill:var(--color1, #e8e8e2)"/><path fill="#e8e8e2" d="M15.991 19.976a4.004 4.004 0 1 0 0-8.009 4.004 4.004 0 0 0 0 8.009z" opacity=".8" style="fill:var(--color1, #e8e8e2)"/></symbol>

<symbol id="icon-mdi_leaf" viewBox="0 0 32 32"><path fill="#fafafa" d="M22.67 10.667c-12 2.667-14.8 10.893-17.573 17.787l2.52.88 1.267-3.067c.64.227 1.307.4 1.787.4C25.338 26.667 29.338 4 29.338 4c-1.333 2.667-10.667 3-17.333 4.333s-9.333 7-9.333 9.667 2.333 5 2.333 5c4.333-12.333 17.667-12.333 17.667-12.333z" style="fill:var(--color3, #fafafa)"/></symbol>

<symbol id="icon-tdesign_cabbage" viewBox="0 0 32 32"><path fill="#e8e8e2" d="M17.487 4.624a5.36 5.36 0 0 0-1.817-1.707c-2.011-1.153-4.601-.951-6.992.388C4.239 5.792 1.333 10.466 1.333 16c0 7.387 5.347 13.351 12.329 14.48a14.67 14.67 0 0 0 2.337.187 14.625 14.625 0 0 0 10.426-4.32 14.613 14.613 0 0 0 4.24-10.46c-.031-2.576-1.064-5.737-2.697-8.264-1.627-2.517-4.128-4.811-7.236-4.781-1.517.003-2.553.837-3.245 1.784v-.001zm8.873 5.526a6.332 6.332 0 0 0-1.684-.044l-1.547-2.6-2.291 1.36 1.189 2a9.055 9.055 0 0 0-1.42.833 7.286 7.286 0 0 0-.024-.077c-.356-1.08-1.044-1.967-1.961-2.848l.005-.027c.092-.431.239-.987.459-1.527.497-1.221 1.075-1.716 1.653-1.716h.015c1.721-.019 3.515 1.303 4.975 3.561.227.351.437.712.632 1.083l-.001.001zm-8.215 3.996c-.44.011-.892.06-1.333.156a5.013 5.013 0 0 0-1.416-1.527c-1.053-.74-2.496-1.107-4.056-.524a18.259 18.259 0 0 0-.432-.241l4.311-4.225-1.867-1.904-5.113 5.012c-1.08-.313-2.089-.425-2.996-.3a11.607 11.607 0 0 1 4.74-4.963c1.819-1.019 3.383-.963 4.361-.401.933.535 1.708 1.748 1.513 3.916l-.06.671.504.447c1.096.969 1.552 1.596 1.749 2.195.139.42.184.928.095 1.689zm-3.746 1.34c-1.139.953-1.903 2.291-2.347 3.736l-3.965-4.353-1.972 1.797 5.451 5.984c-.007 1.589.197 3.216.493 4.687A11.933 11.933 0 0 1 3.999 16c0-1.387.385-2.143.839-2.473.428-.315 1.368-.572 3.293.139.696.257 1.501.652 2.423 1.225l.669.416.688-.387c.831-.467 1.465-.301 1.952.04.213.149.396.336.536.527zm2.353 12.49 9.723-10.716-1.975-1.792-3.909 4.308.009-1.352-2.667-.019-.031 4.333-3.311 3.649c-.251-1.361-.4-2.824-.352-4.196.085-2.34 1.02-4.263 2.403-5.024.573-.316 1.585-.44 2.385-.299l1.187.207.327-1.159c.171-.604.623-1.251 1.329-1.827a6.365 6.365 0 0 1 2.445-1.221c1.068-.261 1.979-.125 2.579.288.524.36 1.051 1.096 1.1 2.605v.024l.004.213a11.947 11.947 0 0 1-11.246 11.976z" style="fill:var(--color1, #e8e8e2)"/></symbol>

<symbol id="icon-tdesign_cabbage-mobile" viewBox="0 0 32 32"><path fill="#e8e8e2" d="M17.487 4.624a5.36 5.36 0 0 0-1.817-1.707c-2.011-1.153-4.601-.951-6.992.388C4.239 5.792 1.333 10.466 1.333 16c0 7.387 5.347 13.351 12.329 14.48a14.67 14.67 0 0 0 2.337.187 14.625 14.625 0 0 0 10.426-4.32 14.613 14.613 0 0 0 4.24-10.46c-.031-2.576-1.064-5.737-2.697-8.264-1.627-2.517-4.128-4.811-7.236-4.781-1.517.003-2.553.837-3.245 1.784v-.001zm8.873 5.526a6.332 6.332 0 0 0-1.684-.044l-1.547-2.6-2.291 1.36 1.189 2a9.055 9.055 0 0 0-1.42.833 7.286 7.286 0 0 0-.024-.077c-.356-1.08-1.044-1.967-1.961-2.848l.005-.027c.092-.431.239-.987.459-1.527.497-1.221 1.075-1.716 1.653-1.716h.015c1.721-.019 3.515 1.303 4.975 3.561.227.351.437.712.632 1.083l-.001.001zm-8.215 3.996c-.44.011-.892.06-1.333.156a5.013 5.013 0 0 0-1.416-1.527c-1.053-.74-2.496-1.107-4.056-.524a18.259 18.259 0 0 0-.432-.241l4.311-4.225-1.867-1.904-5.113 5.012c-1.08-.313-2.089-.425-2.996-.3a11.607 11.607 0 0 1 4.74-4.963c1.819-1.019 3.383-.963 4.361-.401.933.535 1.708 1.748 1.513 3.916l-.06.671.504.447c1.096.969 1.552 1.596 1.749 2.195.139.42.184.928.095 1.689zm-3.746 1.34c-1.139.953-1.903 2.291-2.347 3.736l-3.965-4.353-1.972 1.797 5.451 5.984c-.007 1.589.197 3.216.493 4.687A11.933 11.933 0 0 1 3.999 16c0-1.387.385-2.143.839-2.473.428-.315 1.368-.572 3.293.139.696.257 1.501.652 2.423 1.225l.669.416.688-.387c.831-.467 1.465-.301 1.952.04.213.149.396.336.536.527zm2.353 12.49 9.723-10.716-1.975-1.792-3.909 4.308.009-1.352-2.667-.019-.031 4.333-3.311 3.649c-.251-1.361-.4-2.824-.352-4.196.085-2.34 1.02-4.263 2.403-5.024.573-.316 1.585-.44 2.385-.299l1.187.207.327-1.159c.171-.604.623-1.251 1.329-1.827a6.365 6.365 0 0 1 2.445-1.221c1.068-.261 1.979-.125 2.579.288.524.36 1.051 1.096 1.1 2.605v.024l.004.213a11.947 11.947 0 0 1-11.246 11.976z" style="fill:var(--color1, #e8e8e2)"/></symbol>

<symbol id="icon-youtube" viewBox="0 0 32 32"><path fill="#e8e8e2" d="M24.241 6c-1.36-.08-4.16-.16-8.4-.16h-.56c-4.08 0-6.8.08-8.16.24-1.84.16-3.12.64-3.84 1.28-.64.56-1.12 1.6-1.28 2.96-.08.88-.16 2.72-.16 5.52v.4c0 2.64.08 4.48.24 5.36.24 1.28.64 2.24 1.44 2.8.8.64 2.16 1.04 4.08 1.2 1.36.08 4.16.16 8.4.16h.56c4.08 0 6.8-.08 8.16-.24 1.84-.16 3.12-.64 3.84-1.28.64-.56 1.12-1.6 1.28-2.96.08-.88.16-2.72.16-5.52v-.4c0-2.64-.08-4.48-.24-5.36-.24-1.28-.64-2.24-1.44-2.8-.8-.64-2.16-1.04-4.08-1.2zm-3.12 9.84-8.8 5.28V10.56l8.8 5.28z" opacity=".8" style="fill:var(--color1, #e8e8e2)"/></symbol><symbol id="close-button" viewBox="0 0 32 32">
<path d="M32 3.223l-3.223-3.223-12.777 12.777-12.777-12.777-3.223 3.223 12.777 12.777-12.777 12.777 3.223 3.223 12.777-12.777 12.777 12.777 3.223-3.223-12.777-12.777 12.777-12.777z"></path></symbol></defs></svg>

<symbol id="icon-check" viewBox="0 0 32 32">
<path fill="none" stroke="#e8e8e2" style="stroke: var(--color1, #e8e8e2)" stroke-linejoin="round" stroke-linecap="round" stroke-miterlimit="4" stroke-width="3.5556" d="M26.667 8l-14.667 14.667-6.667-6.667"></path>
</symbol>

<svg xmlns="http://www.w3.org/2000/svg" aria-hidden="true" style="position:absolute;width:0;height:0;overflow:hidden">
  <defs>

    <symbol id="icon-chevron-down" viewBox="0 0 32 32">
      <path stroke-linecap="round" stroke-linejoin="round" stroke-width="3.2" d="m8 12 8 8 8-8"/>
    </symbol>

    <symbol id="icon-fb" viewBox="0 0 32 32">
      <path fill="#e8e8e2" d="M19.519 4.64h.96v3.6h-1.2c-.48 0-.96 0-1.2.24s-.24.48-.24 1.04v1.28h2.64v3.04h-2.64v13.2h-4.08V13.76h-2.16v-3.04h2.16V9.68c0-1.76.24-3.04.72-3.6.72-1.04 2.16-1.52 4.32-1.52.24.08.48.08.72.08z" style="fill:var(--color1, #e8e8e2)"/>
    </symbol>

    <symbol id="icon-heroicons-solid_shopping-cart-12x12" viewBox="0 0 32 32">
      <path fill="#6d8434" d="M4.798 1.6a1.6 1.6 0 0 0 0 3.2H6.75l.488 1.955.016.067 2.173 8.688-1.429 1.427c-2.016 2.016-.589 5.462 2.262 5.462h13.738a1.6 1.6 0 0 0 0-3.2H10.26l1.6-1.6h10.538a1.602 1.602 0 0 0 1.431-.885l4.8-9.6a1.602 1.602 0 0 0-1.43-2.315H10.047L9.551 2.81a1.601 1.601 0 0 0-1.552-1.212h-3.2zm20.8 24.8a2.4 2.4 0 1 1-4.799 0 2.4 2.4 0 0 1 4.799 0zm-15.2 2.4a2.401 2.401 0 1 0-.001-4.802 2.401 2.401 0 0 0 .001 4.802z" style="fill:var(--color2, #6d8434)"/>
    </symbol>

    <symbol id="icon-heroicons-solid_shopping-cart-18x18" viewBox="0 0 32 32">
      <path fill="#e8e8e2" d="M4.801 1.6a1.6 1.6 0 0 0 0 3.2h1.952l.488 1.955.016.067L9.43 15.51l-1.429 1.427c-2.016 2.016-.589 5.462 2.262 5.462h13.738a1.6 1.6 0 0 0 0-3.2H10.263l1.6-1.6h10.538a1.602 1.602 0 0 0 1.431-.885l4.8-9.6a1.602 1.602 0 0 0-1.431-2.315H10.049L9.553 2.81a1.601 1.601 0 0 0-1.552-1.212h-3.2zm20.8 24.8a2.4 2.4 0 1 1-4.799 0 2.4 2.4 0 0 1 4.799 0zm-15.2 2.4a2.401 2.401 0 1 0-.001-4.802 2.401 2.401 0 0 0 0 4.802z" style="fill:var(--color1, #e8e8e2)"/>
    </symbol>

    <symbol id="icon-ic_baseline-search-20x20" viewBox="0 0 32 32">
      <path d="M20.667 18.667h-1.053l-.373-.36a8.625 8.625 0 0 0 2.093-5.64 8.668 8.668 0 0 0-5.35-8.007A8.66 8.66 0 0 0 6.54 6.539a8.67 8.67 0 0 0-1.879 9.444 8.671 8.671 0 0 0 8.007 5.35 8.63 8.63 0 0 0 5.64-2.093l.36.373v1.053l6.667 6.653 1.987-1.987-6.653-6.667zm-8 0c-3.32 0-6-2.68-6-6s2.68-6 6-6 6 2.68 6 6-2.68 6-6 6z"/>
    </symbol>

    <symbol id="icon-instagram" viewBox="0 0 32 32">
      <path fill="#e8e8e2" d="M28.718 10.756a9.264 9.264 0 0 0-.596-3.145 6.547 6.547 0 0 0-3.743-3.737 9.42 9.42 0 0 0-3.108-.596c-1.367-.061-1.801-.078-5.273-.078s-3.916 0-5.274.078a9.418 9.418 0 0 0-3.106.596 6.541 6.541 0 0 0-3.743 3.737 9.288 9.288 0 0 0-.596 3.101c-.061 1.367-.08 1.8-.08 5.265s0 3.909.08 5.265a9.335 9.335 0 0 0 .596 3.104 6.548 6.548 0 0 0 3.744 3.735 9.37 9.37 0 0 0 3.106.639c1.369.061 1.803.079 5.274.079s3.917 0 5.274-.079a9.362 9.362 0 0 0 3.108-.595 6.555 6.555 0 0 0 3.743-3.737 9.346 9.346 0 0 0 .596-3.104c.061-1.365.08-1.798.08-5.265-.003-3.466-.003-3.906-.082-5.264zM15.991 22.531c-3.631 0-6.572-2.936-6.572-6.561s2.941-6.561 6.572-6.561c3.628 0 6.572 2.936 6.572 6.561s-2.944 6.561-6.572 6.561zm6.833-11.835a1.53 1.53 0 1 1 0-3.06 1.53 1.53 0 1 1 0 3.06z" opacity=".8" style="fill:var(--color1, #e8e8e2)"/>
      <path fill="#e8e8e2" d="M15.991 19.976a4.004 4.004 0 1 0 0-8.009 4.004 4.004 0 0 0 0 8.009z" opacity=".8" style="fill:var(--color1, #e8e8e2)"/>
    </symbol>

    <symbol id="icon-mdi_leaf" viewBox="0 0 32 32">
      <path fill="#fafafa" d="M22.67 10.667c-12 2.667-14.8 10.893-17.573 17.787l2.52.88 1.267-3.067c.64.227 1.307.4 1.787.4C25.338 26.667 29.338 4 29.338 4c-1.333 2.667-10.667 3-17.333 4.333s-9.333 7-9.333 9.667 2.333 5 2.333 5c4.333-12.333 17.667-12.333 17.667-12.333z" style="fill:var(--color3, #fafafa)"/>
    </symbol>

    <symbol id="icon-tdesign_cabbage" viewBox="0 0 32 32">
      <path fill="#e8e8e2" d="M17.487 4.624a5.36 5.36 0 0 0-1.817-1.707c-2.011-1.153-4.601-.951-6.992.388C4.239 5.792 1.333 10.466 1.333 16c0 7.387 5.347 13.351 12.329 14.48a14.67 14.67 0 0 0 2.337.187 14.625 14.625 0 0 0 10.426-4.32 14.613 14.613 0 0 0 4.24-10.46c-.031-2.576-1.064-5.737-2.697-8.264-1.627-2.517-4.128-4.811-7.236-4.781-1.517.003-2.553.837-3.245 1.784v-.001zm8.873 5.526a6.332 6.332 0 0 0-1.684-.044l-1.547-2.6-2.291 1.36 1.189 2a9.055 9.055 0 0 0-1.42.833 7.286 7.286 0 0 0-.024-.077c-.356-1.08-1.044-1.967-1.961-2.848l.005-.027c.092-.431.239-.987.459-1.527.497-1.221 1.075-1.716 1.653-1.716h.015c1.721-.019 3.515 1.303 4.975 3.561.227.351.437.712.632 1.083l-.001.001zm-8.215 3.996c-.44.011-.892.06-1.333.156a5.013 5.013 0 0 0-1.416-1.527c-1.053-.74-2.496-1.107-4.056-.524a18.259 18.259 0 0 0-.432-.241l4.311-4.225-1.867-1.904-5.113 5.012c-1.08-.313-2.089-.425-2.996-.3a11.607 11.607 0 0 1 4.74-4.963c1.819-1.019 3.383-.963 4.361-.401.933.535 1.708 1.748 1.513 3.916l-.06.671.504.447c1.096.969 1.552 1.596 1.749 2.195.139.42.184.928.095 1.689zm-3.746 1.34c-1.139.953-1.903 2.291-2.347 3.736l-3.965-4.353-1.972 1.797 5.451 5.984c-.007 1.589.197 3.216.493 4.687A11.933 11.933 0 0 1 3.999 16c0-1.387.385-2.143.839-2.473.428-.315 1.368-.572 3.293.139.696.257 1.501.652 2.423 1.225l.669.416.688-.387c.831-.467 1.465-.301 1.952.04.213.149.396.336.536.527zm2.353 12.49 9.723-10.716-1.975-1.792-3.909 4.308.009-1.352-2.667-.019-.031 4.333-3.311 3.649c-.251-1.361-.4-2.824-.352-4.196.085-2.34 1.02-4.263 2.403-5.024.573-.316 1.585-.44 2.385-.299l1.187.207.327-1.159c.171-.604.623-1.251 1.329-1.827a6.365 6.365 0 0 1 2.445-1.221c1.068-.261 1.979-.125 2.579.288.524.36 1.051 1.096 1.1 2.605v.024l.004.213a11.947 11.947 0 0 1-11.246 11.976z" style="fill:var(--color1, #e8e8e2)"/>
    </symbol>

    <symbol id="icon-tdesign_cabbage-mobile" viewBox="0 0 32 32">
      <path fill="#e8e8e2" d="M17.487 4.624a5.36 5.36 0 0 0-1.817-1.707c-2.011-1.153-4.601-.951-6.992.388C4.239 5.792 1.333 10.466 1.333 16c0 7.387 5.347 13.351 12.329 14.48a14.67 14.67 0 0 0 2.337.187 14.625 14.625 0 0 0 10.426-4.32 14.613 14.613 0 0 0 4.24-10.46c-.031-2.576-1.064-5.737-2.697-8.264-1.627-2.517-4.128-4.811-7.236-4.781-1.517.003-2.553.837-3.245 1.784v-.001zm8.873 5.526a6.332 6.332 0 0 0-1.684-.044l-1.547-2.6-2.291 1.36 1.189 2a9.055 9.055 0 0 0-1.42.833 7.286 7.286 0 0 0-.024-.077c-.356-1.08-1.044-1.967-1.961-2.848l.005-.027c.092-.431.239-.987.459-1.527.497-1.221 1.075-1.716 1.653-1.716h.015c1.721-.019 3.515 1.303 4.975 3.561.227.351.437.712.632 1.083l-.001.001zm-8.215 3.996c-.44.011-.892.06-1.333.156a5.013 5.013 0 0 0-1.416-1.527c-1.053-.74-2.496-1.107-4.056-.524a18.259 18.259 0 0 0-.432-.241l4.311-4.225-1.867-1.904-5.113 5.012c-1.08-.313-2.089-.425-2.996-.3a11.607 11.607 0 0 1 4.74-4.963c1.819-1.019 3.383-.963 4.361-.401.933.535 1.708 1.748 1.513 3.916l-.06.671.504.447c1.096.969 1.552 1.596 1.749 2.195.139.42.184.928.095 1.689zm-3.746 1.34c-1.139.953-1.903 2.291-2.347 3.736l-3.965-4.353-1.972 1.797 5.451 5.984c-.007 1.589.197 3.216.493 4.687A11.933 11.933 0 0 1 3.999 16c0-1.387.385-2.143.839-2.473.428-.315 1.368-.572 3.293.139.696.257 1.501.652 2.423 1.225l.669.416.688-.387c.831-.467 1.465-.301 1.952.04.213.149.396.336.536.527zm2.353 12.49 9.723-10.716-1.975-1.792-3.909 4.308.009-1.352-2.667-.019-.031 4.333-3.311 3.649c-.251-1.361-.4-2.824-.352-4.196.085-2.34 1.02-4.263 2.403-5.024.573-.316 1.585-.44 2.385-.299l1.187.207.327-1.159c.171-.604.623-1.251 1.329-1.827a6.365 6.365 0 0 1 2.445-1.221c1.068-.261 1.979-.125 2.579.288.524.36 1.051 1.096 1.1 2.605v.024l.004.213a11.947 11.947 0 0 1-11.246 11.976z" style="fill:var(--color1, #e8e8e2)"/>
    </symbol>

    <symbol id="icon-youtube" viewBox="0 0 32 32">
      <path fill="#e8e8e2" d="M24.241 6c-1.36-.08-4.16-.16-8.4-.16h-.56c-4.08 0-6.8.08-8.16.24-1.84.16-3.12.64-3.84 1.28-.64.56-1.12 1.6-1.28 2.96-.08.88-.16 2.72-.16 5.52v.4c0 2.64.08 4.48.24 5.36.24 1.28.64 2.24 1.44 2.8.8.64 2.16 1.04 4.08 1.2 1.36.08 4.16.16 8.4.16h.56c4.08 0 6.8-.08 8.16-.24 1.84-.16 3.12-.64 3.84-1.28.64-.56 1.12-1.6 1.28-2.96.08-.88.16-2.72.16-5.52v-.4c0-2.64-.08-4.48-.24-5.36-.24-1.28-.64-2.24-1.44-2.8-.8-.64-2.16-1.04-4.08-1.2zm-3.12 9.84-8.8 5.28V10.56l8.8 5.28z" opacity=".8" style="fill:var(--color1, #e8e8e2)"/>
    </symbol>

    <symbol id="close-button" viewBox="0 0 32 32">
      <path d="M32 3.223 28.777 0 16 12.777 3.223 0 0 3.223 12.777 16 0 28.777 3.223 32 16 19.223 28.777 32 32 28.777 19.223 16 32 3.223z"/>
    </symbol>
    
    <symbol id="icon-check" viewBox="0 0 32 32">
      <path fill="none" stroke="#e8e8e2" stroke-linecap="round" stroke-linejoin="round" stroke-width="3.556" d="M26.667 8 12 22.667 5.333 16" style="stroke:var(--color1, #e8e8e2)"/>
    </symbol>
  </defs>
</svg>
